src/main/resources/icons/PythonIcons/icons/com/jetbrains/python/pypy.svg

<svg xmlns="http://www.w3.org/2000/svg" width="16" height="16" viewBox="0 0 16 16">
  <defs>
    <linearGradient id="pypy-a" x1="10.428%" x2="89.522%" y1="45.224%" y2="44.164%">
      <stop offset="0%" stop-color="#5B9FD3"/>
      <stop offset="48.719%" stop-color="#A0D64D"/>
      <stop offset="100%" stop-color="#FEE873"/>
    </linearGradient>
  </defs>
  <g fill="none" fill-rule="evenodd">
    <path fill="url(#pypy-a)" fill-rule="nonzero" stroke="#000101" stroke-width=".4" d="M5.72304548,12.8951269 L5.79555755,12.9325003 C6.32060134,13.3581977 7.01261514,13.6 7.75,13.6 C8.39005488,13.6 8.99697035,13.4180734 9.56662938,13.0584509 C12.6184189,12.4967338 14.8,10.3616551 14.8,7.9 C14.8,4.98490042 11.7646722,2.6 8,2.6 C4.23532781,2.6 1.2,4.98490042 1.2,7.9 C1.2,10.152313 3.02780483,12.1476977 5.72304548,12.8951269 Z M5.16550586,9.81102497 C4.06620386,9.29062985 3.4,8.48888958 3.4,7.6 C3.4,6.02552796 5.47397039,4.8 8,4.8 C10.5260296,4.8 12.6,6.02552796 12.6,7.6 C12.6,8.59515384 11.7650158,9.47708414 10.4399118,9.97836694 L10.2933209,10.0338218 L10.2044275,9.90474008 C9.69532706,9.1654773 8.77093151,8.7 7.75,8.7 C6.80243086,8.7 5.9355772,9.10060709 5.40671211,9.75586873 L5.3078206,9.8783949 L5.16550586,9.81102497 Z"/>
    <path fill="#2B2B2B" fill-opacity=".1" fill-rule="nonzero" d="M8.04950696,10.1998388 C10.4567521,10.1841568 12.4,9.02617631 12.4,7.6 C12.4,6.16405965 10.4300529,5 8,5 C5.5699471,5 3.6,6.16405965 3.6,7.6 C3.6,8.34158001 4.12540935,9.01064607 4.96826023,9.48430809 C3.88781248,8.91566919 3.2,8.05865157 3.2,7.1 C3.2,5.38791728 5.39380473,4 8.1,4 C10.8061953,4 13,5.38791728 13,7.1 C13,8.81208272 10.8061953,10.2 8.1,10.2 C8.08314898,10.2 8.06631784,10.1999462 8.04950696,10.1998388 Z"/>
    <path fill="#000" fill-rule="nonzero" d="M10.22,12.721384 L11.5211619,12.21652 C12,12 12.4752272,11.4274213 12.3788138,10.9061197 C12.3777411,10.900392 12.3777411,10.900392 12.3766164,10.8946726 C12.2753472,10.3857952 11.7397877,10.0479521 11.1804108,10.1400789 L10.22,10.2159064 L10.22,12.721384 Z M10.22,9.83599915 L11.0913391,9.6924936 C11.9224413,9.55561487 12.7181565,10.0575702 12.8686186,10.8136421 C12.8702897,10.8221398 12.8702897,10.8221398 12.8718835,10.8306497 C13.0137126,11.5975111 12.451371,12.225574 11.6102336,12.564105 L10.22,12.99307"/>
    <path fill="#2B2B2B" fill-opacity=".1" fill-rule="nonzero" d="M1.5703781,13.3999997 C1.45891818,13.0648919 1.4,12.7157489 1.4,12.3570148 C1.4,9.81650494 4.35492065,7.75701479 8,7.75701479 C11.6450793,7.75701479 14.6,9.81650494 14.6,12.3570148 C14.6,12.5598247 14.5811686,12.7595692 14.544658,12.9554451 C14.3521377,10.7170837 11.5221017,8.94088579 8.0591835,8.94088579 C4.47158678,8.94088579 1.563265,10.8472862 1.563265,13.1989503 C1.563265,13.2663439 1.56565352,13.3333718 1.5703781,13.3999997 Z" transform="matrix(1 0 0 -1 0 21.157)"/>
    <circle cx="7.5" cy="10" r="1" fill="#1D1D1D" fill-rule="nonzero"/>
    <circle cx="7.5" cy="12" r="1" fill="#1D1D1D" fill-rule="nonzero"/>
  </g>
</svg>

<svg xmlns="http://www.w3.org/2000/svg" width="16" height="16" viewBox="0 0 16 16"><rect id="frame" width="16" height="16" fill="none"/><defs><linearGradient id="a" x1="10.428%" x2="89.522%" y1="45.224%" y2="44.164%"><stop offset="0%" stop-color="#5B9FD3"/><stop offset="48.719%" stop-color="#A0D64D"/><stop offset="100%" stop-color="#FEE873"/></linearGradient></defs><g fill="none" fill-rule="nonzero"><path fill="url(#a)" stroke="#000101" stroke-width=".4" d="M5.723 12.895l.073.038a3.103 3.103 0 0 0 1.954.667c.64 0 1.247-.182 1.817-.542 3.051-.561 5.233-2.696 5.233-5.158 0-2.915-3.035-5.3-6.8-5.3-3.765 0-6.8 2.385-6.8 5.3 0 2.252 1.828 4.248 4.523 4.995zm-.557-3.084C4.066 9.291 3.4 8.489 3.4 7.6c0-1.574 2.074-2.8 4.6-2.8s4.6 1.226 4.6 2.8c0 .995-.835 1.877-2.16 2.378l-.147.056-.089-.13C9.695 9.166 8.771 8.7 7.75 8.7c-.948 0-1.814.4-2.343 1.056l-.1.122-.141-.067z"/><path fill="#2B2B2B" fill-opacity=".1" d="M8.05 10.2c2.407-.016 4.35-1.174 4.35-2.6C12.4 6.164 10.43 5 8 5 5.57 5 3.6 6.164 3.6 7.6c0 .742.525 1.41 1.368 1.884C3.888 8.916 3.2 8.06 3.2 7.1 3.2 5.388 5.394 4 8.1 4 10.806 4 13 5.388 13 7.1c0 1.712-2.194 3.1-4.9 3.1h-.05z"/><path fill="#000" d="M10.22 12.721l1.301-.504c.479-.217.954-.79.858-1.31l-.002-.012c-.102-.51-.637-.847-1.197-.755l-.96.076v2.505zm0-2.885l.871-.144c.831-.136 1.627.366 1.778 1.122l.003.017c.142.767-.42 1.395-1.262 1.733l-1.39.43"/><path fill="#2B2B2B" fill-opacity=".1" d="M1.57 7.757c-.111.335-.17.684-.17 1.043 0 2.54 2.955 4.6 6.6 4.6 3.645 0 6.6-2.06 6.6-4.6 0-.203-.019-.403-.055-.598-.193 2.238-3.023 4.014-6.486 4.014-3.587 0-6.496-1.906-6.496-4.258 0-.067.003-.134.007-.201z"/><circle cx="7.5" cy="10" r="1" fill="#1D1D1D"/><circle cx="7.5" cy="12" r="1" fill="#1D1D1D"/></g></svg>
